app/images/customer-modal/third-modal/support-outline.svg

<svg width="58" height="60" viewBox="0 0 58 60" fill="none" xmlns="http://www.w3.org/2000/svg">
<path d="M54.5691 27.2576C54.492 24.0538 53.8443 20.9548 52.6379 18.0287C53.0551 17.7454 53.3775 17.3333 53.544 16.8518C53.7545 16.243 53.7043 15.5666 53.4062 14.9963C51.555 11.4519 49.0136 8.40234 45.8528 5.9325C45.4713 5.63449 44.9203 5.70187 44.6221 6.08355C44.3241 6.46512 44.3916 7.01613 44.7731 7.31426C47.7356 9.62906 50.1173 12.4868 51.8522 15.8082C51.9288 15.9548 51.9411 16.122 51.8869 16.2787C51.8324 16.4365 51.7187 16.5611 51.5667 16.6295L47.4271 18.4961C47.1424 18.6241 46.8046 18.5109 46.6577 18.238C43.0876 11.603 36.1923 7.48113 28.6627 7.48113C21.133 7.48113 14.2377 11.603 10.6676 18.238C10.5206 18.5109 10.1827 18.6244 9.89836 18.4961L5.75848 16.6294C5.6066 16.5611 5.49293 16.4365 5.43844 16.2789C5.38418 16.1221 5.39648 15.9547 5.47313 15.8081C10.0014 7.13883 18.887 1.75336 28.6627 1.75336C33.2305 1.75336 37.744 2.96344 41.7151 5.25281C42.1345 5.4941 42.6707 5.35055 42.9125 4.93113C43.1543 4.5116 43.0103 3.97559 42.5909 3.73371C38.3538 1.29105 33.5374 0 28.6627 0C23.5617 0 18.5532 1.40484 14.1789 4.06277C9.81938 6.71144 6.27164 10.4923 3.91898 14.9963C3.62098 15.5668 3.57082 16.2431 3.78141 16.852C3.94805 17.3337 4.27055 17.7456 4.68785 18.0289C3.49488 20.9227 2.84695 23.9851 2.75836 27.1515C1.14926 27.7521 0.000117235 29.3043 0.000117235 31.1202V38.3377C0.000117235 38.8219 0.392578 39.2143 0.876797 39.2143C1.36102 39.2143 1.75348 38.8219 1.75348 38.3377V31.1202C1.75348 29.752 2.86652 28.639 4.23469 28.639H6.51949C7.88766 28.639 9.0007 29.7521 9.0007 31.1202V43.8374C9.0007 45.2055 7.88766 46.3186 6.51949 46.3186H4.23457C2.86641 46.3186 1.75336 45.2054 1.75336 43.8374V42.1879C1.75336 41.7036 1.3609 41.3112 0.87668 41.3112C0.392461 41.3112 0 41.7036 0 42.1879V43.8374C0 46.1723 1.89961 48.0721 4.23469 48.0721H6.51949C8.85445 48.0721 10.7542 46.1725 10.7542 43.8374V31.1202C10.7542 29.3137 9.61688 27.7689 8.02102 27.1615C8.10539 24.758 8.60063 22.425 9.49512 20.2079C10.5396 20.5077 11.6846 20.0486 12.2119 19.0688C15.4758 13.0028 21.7794 9.23449 28.6629 9.23449C35.5464 9.23449 41.85 13.0027 45.1139 19.0688C45.5339 19.8493 46.3463 20.3011 47.1873 20.3011C47.4021 20.3011 47.6188 20.2709 47.8313 20.2099C48.7144 22.3995 49.2076 24.7023 49.3007 27.0745C47.5748 27.6096 46.3177 29.2208 46.3177 31.1202V43.8374C46.3177 45.459 47.2344 46.87 48.5763 47.5812C47.3689 50.2952 44.8252 52.2267 41.8737 52.6368C41.5845 52.1332 41.1824 51.6932 40.6856 51.3574C40.2845 51.0864 39.7395 51.192 39.4684 51.5932C39.1973 51.9943 39.3029 52.5393 39.7042 52.8104C40.2868 53.2041 40.6347 53.858 40.6347 54.5598V56.1375C40.6347 57.3005 39.6886 58.2466 38.5255 58.2466H34.245C33.082 58.2466 32.1359 57.3006 32.1359 56.1375V54.5598C32.1359 53.3968 33.0819 52.4507 34.245 52.4507H36.0346C36.5188 52.4507 36.9113 52.0582 36.9113 51.574C36.9113 51.0898 36.5188 50.6973 36.0346 50.6973H34.245C32.1152 50.6973 30.3825 52.43 30.3825 54.5598V56.1375C30.3825 58.2673 32.1152 60 34.245 60H38.5255C40.0129 60 41.3057 59.1544 41.9508 57.9191C44.7905 57.6619 47.4404 56.556 49.6351 54.703C51.7716 52.8994 53.2888 50.5537 54.0461 47.8952C55.7936 47.3736 57.0716 45.7523 57.0716 43.8374V31.1202C57.0715 29.4022 56.0426 27.921 54.5691 27.2576ZM7.8852 19.5117C6.93047 21.8647 6.39152 24.3382 6.27809 26.8856H4.52285C4.63711 24.0769 5.22422 21.3593 6.27352 18.7852L7.8852 19.5117ZM51.0471 26.8856C50.9337 24.3381 50.3948 21.8647 49.44 19.5118L51.0519 18.785C52.1011 21.3592 52.6881 24.0771 52.8023 26.8856H51.0471ZM42.3879 56.1042V54.5598C42.3879 54.4834 42.3853 54.4072 42.3809 54.3315C45.9007 53.7478 48.9035 51.3645 50.2775 48.0622C50.3684 48.0681 50.4598 48.0721 50.5521 48.0721H52.1488C50.6595 52.3186 46.8466 55.4647 42.3879 56.1042ZM55.3181 43.8374C55.3181 45.2055 54.2051 46.3186 52.837 46.3186H50.5521C49.1839 46.3186 48.071 45.2054 48.071 43.8374V31.1202C48.071 29.752 49.1841 28.639 50.5521 28.639H52.837C54.2052 28.639 55.3181 29.7521 55.3181 31.1202V43.8374Z" fill="#303030"/>
<path d="M30.2156 40.9112C30.1075 40.9112 29.9977 40.8912 29.891 40.8488C29.4399 40.6695 29.2197 40.1583 29.3992 39.7074L33.0311 30.5759C33.2105 30.1248 33.7218 29.9044 34.1725 30.0841C34.6237 30.2634 34.8439 30.7745 34.6643 31.2255L31.0324 40.3569C30.8955 40.7014 30.565 40.9112 30.2156 40.9112Z" fill="#303030"/>
<path d="M38.6805 40.911C38.5624 40.911 38.4424 40.8871 38.3272 40.8365C37.8828 40.6411 37.6809 40.1225 37.8762 39.6781L41.3486 31.7793H37.6716C37.1861 31.7793 36.7927 31.3859 36.7927 30.9004C36.7927 30.4149 37.1861 30.0215 37.6716 30.0215H42.6951C42.9919 30.0215 43.2689 30.1714 43.431 30.4199C43.5932 30.6685 43.6191 30.9823 43.4997 31.2541L39.4856 40.3855C39.3409 40.7148 39.0186 40.911 38.6805 40.911Z" fill="#303030"/>
<path d="M25.6423 40.9108C25.6397 40.9108 25.6371 40.9108 25.6346 40.9108C25.1492 40.9066 24.759 40.5097 24.7633 40.0244C24.7681 39.4725 24.7729 38.8566 24.7776 38.2157H21.0959C20.785 38.2157 20.4972 38.0514 20.3391 37.7836C20.181 37.5159 20.1762 37.1845 20.3264 36.9121C20.8398 35.9816 23.4273 31.3069 23.9519 30.6636C24.3898 30.1265 24.9799 29.9077 25.5314 30.0783C26.0891 30.2511 26.4854 30.7935 26.541 31.4602C26.5684 31.7891 26.5607 34.229 26.5474 36.4578H26.8303C27.3157 36.4578 27.7092 36.8512 27.7092 37.3367C27.7092 37.8222 27.3157 38.2156 26.8303 38.2156H26.5357C26.5296 39.0384 26.5241 39.7059 26.5212 40.0394C26.5169 40.5222 26.1242 40.9108 25.6423 40.9108ZM22.5887 36.4579H24.7892C24.798 34.9564 24.8037 33.5078 24.8013 32.5841C24.2742 33.4677 23.4381 34.9357 22.5887 36.4579Z" fill="#303030"/>
<path d="M16.5671 41.0022C14.8124 41.0022 14.6834 40.9592 14.5654 40.9199C14.2724 40.8222 14.0536 40.6009 13.9649 40.3126C13.812 39.8156 14.0256 39.536 14.5965 38.7886C15.0608 38.1806 15.9252 37.0487 17.3736 34.9793C17.8038 34.3647 18.0813 33.8143 18.1987 33.3423L18.2299 33.0982C18.2037 32.3172 17.5602 31.6899 16.773 31.6899C16.0778 31.6899 15.4763 32.1838 15.3426 32.8642C15.249 33.3404 14.787 33.6501 14.3108 33.5572C13.8345 33.4636 13.5242 33.0017 13.6177 32.5254C13.9129 31.0228 15.2398 29.9321 16.7729 29.9321C18.5458 29.9321 19.9883 31.3746 19.9883 33.1475C19.9883 33.1847 19.9859 33.2219 19.9811 33.2587L19.936 33.6121C19.9322 33.6415 19.9271 33.6705 19.9204 33.6994C19.7579 34.4003 19.3854 35.1701 18.8134 35.9871C17.7344 37.5287 16.9738 38.5589 16.4589 39.2422C17.3236 39.245 18.4382 39.2345 19.4853 39.2212C19.9711 39.2175 20.3691 39.6037 20.3752 40.0889C20.3813 40.5744 19.9928 40.9727 19.5074 40.9788C18.2075 40.9955 17.2604 41.0022 16.5671 41.0022Z" fill="#303030"/>
</svg>

<svg width="58" height="60" fill="none" xmlns="http://www.w3.org/2000/svg"><path d="M54.57 27.258a25.715 25.715 0 00-1.932-9.23c.417-.283.74-.695.906-1.176.21-.609.16-1.285-.138-1.856a27.71 27.71 0 00-7.553-9.064.877.877 0 00-1.08 1.382 25.97 25.97 0 017.08 8.494.59.59 0 01.034.47.593.593 0 01-.32.352l-4.14 1.866a.597.597 0 01-.77-.258A20.41 20.41 0 0028.664 7.481a20.41 20.41 0 00-17.995 10.757.597.597 0 01-.77.258l-4.14-1.867a.593.593 0 01-.32-.35.59.59 0 01.035-.47 26.086 26.086 0 0123.19-14.056c4.567 0 9.081 1.21 13.052 3.5a.877.877 0 00.876-1.52A27.93 27.93 0 0028.663 0a27.891 27.891 0 00-14.484 4.063 27.931 27.931 0 00-10.26 10.933 2.359 2.359 0 00-.138 1.856c.167.482.49.894.907 1.177a25.705 25.705 0 00-1.93 9.122A4.242 4.242 0 000 31.121v7.217a.877.877 0 101.753 0V31.12a2.484 2.484 0 012.482-2.481h2.284a2.484 2.484 0 012.482 2.481v12.717a2.484 2.484 0 01-2.482 2.482H4.235a2.484 2.484 0 01-2.482-2.482v-1.65a.877.877 0 10-1.753 0v1.65a4.24 4.24 0 004.235 4.235h2.284a4.24 4.24 0 004.235-4.235V31.12a4.241 4.241 0 00-2.733-3.959c.084-2.403.58-4.736 1.474-6.953 1.045.3 2.19-.16 2.717-1.14a18.66 18.66 0 0116.45-9.834 18.659 18.659 0 0116.452 9.835 2.354 2.354 0 002.717 1.14 20.415 20.415 0 011.47 6.866 4.242 4.242 0 00-2.983 4.045v12.717c0 1.622.916 3.033 2.258 3.744a8.673 8.673 0 01-6.702 5.056 3.865 3.865 0 00-1.188-1.28.877.877 0 00-.982 1.453 2.11 2.11 0 01.93 1.75v1.578c0 1.163-.945 2.109-2.108 2.109h-4.281a2.111 2.111 0 01-2.11-2.11V54.56c0-1.163.947-2.11 2.11-2.11h1.79a.877.877 0 100-1.753h-1.79a3.867 3.867 0 00-3.862 3.863v1.578A3.867 3.867 0 0034.245 60h4.28c1.488 0 2.78-.846 3.426-2.08a13.762 13.762 0 007.684-3.217 13.824 13.824 0 004.411-6.808 4.241 4.241 0 003.026-4.058V31.12a4.24 4.24 0 00-2.503-3.862zM7.884 19.512a22.151 22.151 0 00-1.607 7.374H4.523a23.942 23.942 0 011.75-8.1l1.612.726zm43.162 7.374a22.147 22.147 0 00-1.607-7.374l1.612-.727a23.945 23.945 0 011.75 8.1h-1.755zm-8.66 29.218V54.56c0-.077-.002-.153-.006-.229a10.434 10.434 0 007.897-6.269c.09.006.182.01.274.01h1.597c-1.49 4.247-5.302 7.393-9.761 8.032zm12.931-12.267a2.484 2.484 0 01-2.481 2.482h-2.285a2.484 2.484 0 01-2.481-2.482V31.12a2.484 2.484 0 012.481-2.481h2.285a2.484 2.484 0 012.481 2.481v12.717z" fill="#303030"/><path d="M30.216 40.911a.879.879 0 01-.816-1.204l3.631-9.131a.879.879 0 111.633.65l-3.632 9.13a.879.879 0 01-.816.555zM38.68 40.911a.88.88 0 01-.804-1.233l3.473-7.899h-3.677a.879.879 0 110-1.758h5.023a.879.879 0 01.805 1.233l-4.014 9.131a.88.88 0 01-.805.526zM25.642 40.91h-.007a.879.879 0 01-.872-.886l.015-1.808h-3.682a.879.879 0 01-.77-1.304c.514-.93 3.101-5.605 3.626-6.248.438-.538 1.028-.756 1.58-.586.557.173.953.716 1.009 1.382.027.33.02 2.769.006 4.998h.283a.879.879 0 110 1.758h-.294l-.015 1.823a.88.88 0 01-.879.872zm-3.053-4.452h2.2c.009-1.502.015-2.95.012-3.874-.527.884-1.363 2.352-2.212 3.874z" fill="#303030"/><path d="M16.567 41.002c-1.755 0-1.884-.043-2.002-.082a.923.923 0 01-.6-.607c-.153-.497.06-.777.632-1.524.464-.608 1.328-1.74 2.777-3.81.43-.614.707-1.165.825-1.637l.03-.244a1.46 1.46 0 00-1.456-1.408 1.46 1.46 0 00-1.43 1.174.88.88 0 01-1.725-.339 3.221 3.221 0 013.155-2.593 3.22 3.22 0 013.215 3.216.86.86 0 01-.007.11l-.045.354a.891.891 0 01-.016.087c-.162.701-.535 1.471-1.107 2.288a112.752 112.752 0 01-2.354 3.255c.865.003 1.98-.008 3.026-.02a.879.879 0 11.022 1.758c-1.3.016-2.247.022-2.94.022z" fill="#303030"/></svg>
